polaris-icons/icons/TumblrMinor.svg

<svg xmlns="http://www.w3.org/2000/svg" viewBox="0 0 20 20"><path fill="#5C5F62" d="M14.3583 13.637C14.2712 13.59 14.1651 13.5946 14.0824 13.649C13.456 14.0603 12.8211 14.2688 12.1949 14.2688C11.8585 14.2688 11.5694 14.1938 11.3101 14.0386C11.1338 13.9344 10.9701 13.7521 10.9114 13.5937C10.8544 13.4431 10.855 13.0376 10.8559 12.4765L10.8562 9.05498H13.7019C13.8508 9.05498 13.9714 8.93442 13.9714 8.78575V6.38163C13.9714 6.23296 13.8508 6.1124 13.7019 6.1124H10.8562V3.26923C10.8562 3.12056 10.7355 3 10.5866 3H8.66956C8.53329 3 8.41848 3.10161 8.40199 3.23676C8.32189 3.89524 8.17247 4.44199 7.95746 4.86269C7.74778 5.27731 7.46409 5.63813 7.11383 5.93557C6.83322 6.17465 6.35284 6.40597 5.68596 6.62313C5.57503 6.65926 5.5 6.76254 5.5 6.87912V8.7858C5.5 8.93447 5.62063 9.05503 5.76951 9.05503H7.33014V13.5063C7.33014 14.1622 7.39978 14.6557 7.54316 15.0153C7.68924 15.3807 7.94856 15.7247 8.31413 16.038C8.67371 16.3458 9.11134 16.5866 9.6163 16.7541C10.1058 16.9136 10.4957 17 11.1531 17C11.7088 17 12.2385 16.9424 12.7277 16.8288C13.2086 16.7167 13.7528 16.5186 14.3452 16.2401C14.4397 16.1956 14.5 16.1008 14.5 15.9965V13.874C14.4999 13.775 14.4456 13.684 14.3583 13.637Z"/></svg>

<svg xmlns="http://www.w3.org/2000/svg" viewBox="0 0 20 20"><path d="M14.358 13.637a.27.27 0 0 0-.276.012c-.626.411-1.26.62-1.887.62-.337 0-.626-.075-.885-.23-.176-.105-.34-.287-.399-.445-.057-.15-.056-.556-.055-1.117v-3.422h2.846a.27.27 0 0 0 .27-.27v-2.403a.27.27 0 0 0-.27-.27h-2.846v-2.843a.27.27 0 0 0-.27-.269h-1.916a.27.27 0 0 0-.268.237c-.08.658-.23 1.205-.445 1.626-.21.414-.493.775-.843 1.073-.28.239-.761.47-1.428.687a.27.27 0 0 0-.186.256v1.907c0 .148.12.269.27.269h1.56v4.451c0 .656.07 1.15.213 1.51.146.365.406.709.771 1.022.36.308.797.549 1.302.716.49.16.88.246 1.537.246a6.98 6.98 0 0 0 1.575-.171 8.334 8.334 0 0 0 1.617-.589.27.27 0 0 0 .155-.243v-2.123a.27.27 0 0 0-.142-.237Z"/></svg>
